X: 33475
T: Raft Race
R: reel
M: 4/4
K: Bminor
f2ed deBA|ABdA a3b|ffec cdBA|FG2d efed|
[1 ABdA FGde|efed egga:|2 ABdA efed|ABde cdef||
ga(3a/a/a/ d2aa|faad ea(3a/a/a/|c2aa eaac|da(3a/a/a/ B2aa|
faaF FGde|efed efge|ga(3a/a/a/d2aa|faad ea(3a/a/a/|
c2aa eaaf|g2fd B2ga|gdBd efed|ABde cd2e||

